X: 119
T: Cantantibus organis – Allegro moderato
C: Franciszek Walczyński
%%abc-version 2.0
%%abcx-abcm2ps-target-version 5.9.1 (29 Sep 2008)
%%abc-creator hum2abc beta
%%abcx-conversion-date 2021/10/04 07:38:39
%%abc-edited-by Kamil Watkowski
%%abcx-initial-encoding-date 2021-08-09
%%humdrum-veritas 1540834677
%%humdrum-veritas-data 3278283356
%%linebreak <none>
%%barnumbers 0
L: 1/4
M: C
N: Derived from pl-kozmzk--mzk-m-346--021_walczynski-franciszek--cantantibus-organis-allegro-moderato.krn
%%staves {1 2}
V: 1 clef=treble
V: 2 clef=bass
K: D
[V:1] Bc/d/Bc/d/ & FGFG | 
[V:2] DEDE & B,,4- | 
[V:1] BA/G<FG/ & FED2 | 
[V:2] DCD2 & B,,4 | 
[V:1] AG/F/EF & DC3- | 
[V:2] F,E,/A,/G,A, & A,,4 | 
[V:1] E2!breath!DE//F//G//A// & C2Dz | 
[V:2] G,2F,z & ^A,,2B,,z | 
[V:1] BB,/C/DE & z2zD/C/ | 
[V:2] z2zA,- & z2zA,, | 
[V:1] F2z2 & D2z2 | 
[V:2] A,2z2 & !breath!D,2C,3/D,/ | 
[V:1] B,C/D/B,C/D/ | 
[V:2] [F,D,][G,E,][F,D,][G,E,] & B,,4- | 
[V:1] D2B,z | 
[V:2] [B,2F,2][F,D,]z & B,,3A,, | 
[V:1] AB/c/AB/c/ & E3=F | 
[V:2] CDCD & A,4- | 
[V:1] A3A & E4 | 
[V:2] C4 & A,2^G,=G, | 
[V:1] de/f/de/f/ & A4 | 
[V:2] DCDC/=C/ & F,E,F,E,/^D,/ | 
[V:1] g2-g/ B/c/d/ & G2-G/ B,/C/D/ | 
[V:2] B,2-B,/ z/z & E,2-E,/ z/z | 
[V:1] !accent!f2z2 & F2z2 | 
[V:2] z2z/ B,/C/D/ & z2z/ B,,/C,/D,/ | 
[V:1] z4 & z4 | 
[V:2] F2z/ B,/C/D/ & F,2z/ B,,/C,/D,/ | 
[V:1] zFED & xDCB, | 
[V:2] F,4- & F,,4- | 
[V:1] CD/B,/!fermata!C2 & ^A,B,/^G,/A,2 | 
[V:2] F,4 & !fermata!F,,4 | 
[V:1] Bc/^d/Bc/d/ & F4- | 
[V:2] ^DEDE & B,4- | 
[V:1] B^A/^G/F2 & F2^D2 | 
[V:2] ^DC/E/D2 & B,4 | 
[V:1] GA/B/GA/B/ & EFEF | 
[V:2] B,=CB,C & E,4- | 
[V:1] G2E!fermata!^C & E2B,^A, | 
[V:2] B,2G,2 & E,2!fermata!E,,2 | 
[V:1] z4 & z4 | 
[V:2] z/ B,/C/D/F2 & z/ B,,/C,/D,/F,2 | 
[V:1] z4 & z4 | 
[V:2] z/ B,/C/D/!accent!F,!accent!^A, & z/ B,,/C,/D,/F,,^A,, | 
[V:1] B,C/D/B,C/D/ | 
[V:2] [F,D,][G,E,][F,D,][G,E,] & B,,4 | 
[V:1] B,2-B,/.C/.D/.E/ & B,2-B,/ z/z | 
[V:2] [F,2D,2]-[F,/D,/] z/z & B,,2-B,,/ z/z | 
[V:1] FG/A/FG/A/ & D4- | 
[V:2] A,_B,A,=B, & D,4- | 
[V:1] F2-F/ .G/.^G/.^A/ & D2-D/ z/z | 
[V:2] A,2-A,/ z/z & D,2-D,/ z/z | 
[V:1] Bc/d/Bc/d/ & FGFG | 
[V:2] DEDE & B,,4- | 
[V:1] BA/G/F2 & FED2 | 
[V:2] DCB,2 & B,,3A,, | 
[V:1] !accent!B2!accent!B!accent!c & G2GB/^A/ | 
[V:2] D2E2 & G,,2E,,F,, | 
[V:1] !fermata!^d4 & [B4F4] |]  
[V:2] [^D4B,4] & [F,4B,,4] |]  


